packages/components/icons/assets/FireOutline.svg

<svg viewBox="0 0 24 24" xmlns="http://www.w3.org/2000/svg" data-title="FireOutline" fill="currentColor" stroke="none">
  <path d="M16.5 14.7727C16.5 14.2204 16.0472 13.7727 15.4886 13.7727C14.9299 13.7727 14.4771 14.2204 14.4771 14.7727C14.4771 15.2399 14.2893 15.688 13.9552 16.0184C13.621 16.3488 13.1677 16.5344 12.6951 16.5344C12.1365 16.5344 11.6836 16.9822 11.6836 17.5344C11.6836 18.0867 12.1365 18.5344 12.6951 18.5344C13.7042 18.5344 14.672 18.1381 15.3856 17.4326C16.0992 16.7272 16.5 15.7703 16.5 14.7727Z"/>
  <path fill-rule="evenodd" clip-rule="evenodd" d="M10.5304 2.00024C10.2494 2.00024 9.97358 2.07548 9.73232 2.21796C9.69423 2.24045 9.65767 2.26541 9.62289 2.29265C9.35921 2.49919 9.1813 2.79416 9.12284 3.12168C9.06546 3.44313 9.12706 3.77405 9.29598 4.05404C10.0745 5.39004 10.5365 6.95501 10.5473 8.40542C10.5553 9.47907 10.3186 10.447 9.82228 11.2282C9.37547 10.7237 9.00744 10.1535 8.73232 9.53625C8.61763 9.27894 8.39868 9.08127 8.1291 8.99165C7.85953 8.90204 7.56425 8.92876 7.31562 9.06528C6.28633 9.63046 5.4333 10.4636 4.84915 11.4743C4.265 12.4849 3.97205 13.6345 4.0021 14.7982L4.0026 14.8131C4.04348 15.8112 4.28587 16.7911 4.71552 17.6952C5.14516 18.5993 5.75338 19.4092 6.50437 20.0775C7.25537 20.7457 8.13397 21.2587 9.08847 21.5862C10.0325 21.9101 11.032 22.0462 12.0292 21.9866C14.4795 21.98 16.445 21.2187 17.8237 19.8904C19.2025 18.562 19.905 16.7524 19.9912 14.8166C20.1924 10.2262 16.9473 4.79716 11.2709 2.18559C11.0438 2.06411 10.7893 2.00024 10.5304 2.00024ZM12.5702 8.39073C12.5612 7.17716 12.3063 5.93391 11.8642 4.76745C15.9624 7.25707 18.1151 11.4218 17.9701 14.7293C17.9025 16.2455 17.362 17.5426 16.4118 18.4581C15.4675 19.3679 14.0291 19.9867 11.997 19.9867C11.9751 19.9867 11.9533 19.9874 11.9316 19.9888C11.1925 20.0361 10.4514 19.9368 9.75176 19.6967C9.05212 19.4567 8.40812 19.0807 7.85766 18.5909C7.30719 18.1011 6.86138 17.5074 6.54645 16.8447C6.23261 16.1843 6.05508 15.4687 6.02421 14.7397C6.00501 13.9438 6.20601 13.1578 6.60556 12.4666C6.83283 12.0733 7.11942 11.7193 7.45374 11.4157C7.93825 12.1868 8.54426 12.8796 9.25111 13.4669C9.64561 13.7946 10.2263 13.7768 10.5994 13.4254C12.0276 12.0807 12.5838 10.2308 12.5702 8.39073Z"/>
</svg>

<svg viewBox="0 0 24 24" xmlns="http://www.w3.org/2000/svg" data-title="FireOutline" fill="currentColor" stroke="none">
  <path d="m16.5,14.77c0-.55-.45-1-1.01-1s-1.01.45-1.01,1c0,.47-.19.92-.52,1.25-.33.33-.79.52-1.26.52-.56,0-1.01.45-1.01,1s.45,1,1.01,1c1.01,0,1.98-.4,2.69-1.1.71-.71,1.11-1.66,1.11-2.66Z"/>
  <path fill-rule="evenodd" d="m10.53,2c-.28,0-.56.08-.8.22-.04.02-.07.05-.11.07-.26.21-.44.5-.5.83-.06.32,0,.65.17.93.78,1.34,1.24,2.9,1.25,4.35,0,1.07-.23,2.04-.73,2.82-.45-.5-.81-1.07-1.09-1.69-.11-.26-.33-.45-.6-.54-.27-.09-.56-.06-.81.07-1.03.57-1.88,1.4-2.47,2.41-.58,1.01-.88,2.16-.85,3.32h0c.04,1.01.28,1.99.71,2.9.43.9,1.04,1.71,1.79,2.38.75.67,1.63,1.18,2.58,1.51.94.32,1.94.46,2.94.4,2.45,0,4.42-.77,5.79-2.1,1.38-1.33,2.08-3.14,2.17-5.07.2-4.59-3.04-10.02-8.72-12.63-.23-.12-.48-.19-.74-.19Zm2.04,6.39c0-1.21-.26-2.46-.71-3.62,4.1,2.49,6.25,6.65,6.11,9.96-.07,1.52-.61,2.81-1.56,3.73-.94.91-2.38,1.53-4.41,1.53-.02,0-.04,0-.07,0-.74.05-1.48-.05-2.18-.29-.7-.24-1.34-.62-1.89-1.11-.55-.49-1-1.08-1.31-1.75-.31-.66-.49-1.38-.52-2.1-.02-.8.18-1.58.58-2.27.23-.39.51-.75.85-1.05.48.77,1.09,1.46,1.8,2.05.39.33.98.31,1.35-.04,1.43-1.34,1.98-3.19,1.97-5.03Z"/>
</svg>
